src/pos-icons/newspaper-variant-multiple-outline.svg

<svg height="24" viewBox="0 0 24 24" width="24" xmlns="http://www.w3.org/2000/svg"><path d="m4 7v12h15v2h-15c-2 0-2-2-2-2v-12zm19-4v12s0 2-2 2h-13s-2 0-2-2v-12zm-2 2h-13v10h13zm-7 2h-4v5h4zm5 0h-4v2h4zm0 3h-4v2h4z"/></svg>

<?xml version="1.0" encoding="UTF-8"?><!DOCTYPE svg PUBLIC "-//W3C//DTD SVG 1.1//EN" "http://www.w3.org/Graphics/SVG/1.1/DTD/svg11.dtd"><svg xmlns="http://www.w3.org/2000/svg" xmlns:xlink="http://www.w3.org/1999/xlink" version="1.1" id="mdi-newspaper-variant-multiple-outline" width="24" height="24" viewBox="0 0 24 24"><path d="M4 7V19H19V21H4C2 21 2 19 2 19V7H4M23 3V15C23 15 23 17 21 17H8C8 17 6 17 6 15V3H23M21 5H8V15H21V5M14 7H10V12H14V7M19 7H15V9H19V7M19 10H15V12H19V10Z" /></svg>
